X: 42223
T: Way To Shercock, The
R: reel
M: 4/4
K: Dmajor
d2Ad fdAB|=c2Gc EcGc|dcAG FGAF|G2E=C EFGB|
A2FA FGAB|=cBcd cAGB|Addc dAed|cAGE DEFA:|
d2(3efg afdB|=cdef ge^cA|defg adfa|gece defg|
adfa g=ceg|fedc d2AG|FGAB cded|cAGE DEFA|
d2(3efg afdB|=cdef ge^cA|d2bd adfa|gece defg|
adfa g=ceg|fedc d2AG|FGAB cded|cAGE DEFA||

